X:165
T:Old Joe Clark
M:4/4
R:Old Time
K:A
|:A2A2 ed c2|Ac BA B4|A2A2 ed c2|Ac B^GA4:|
|:ef gf ed c2|ef gf e4|ef gf ed c2|Ac B2B2A2:|
